X:138j
T: Hosszú asztal mellett...
M: 4/4
L: 1/4
K: Bb
ddee | d2c2 | 
ddcB | A2 G2 | 
B2 AG | DGAB | 
cBdd | G2 G2 | 

